X: 22050
T: Knockatallon Rambler, The
R: reel
M: 4/4
K: Gmajor
DB, B,2 DB,D_F|EC C2 ECEG|FD D2 FGAF|G2 BG DCB,C
DB, B,2 DB,D_F|EC C2 ECEG|FGAB cAFG|AGGF G2 G:|
dggf gdBd|eccB caag|fdd^c dfaf|g2 bg dcBc
d2 Bd gdBd|c2 Gc EcGc|EccB cBAG|FDEF G2 G:|

